X:255
T:The Bailiffs are Comeing
O:No 255 Wm Clarke of Feltwell MS  1858
N:Quaver rest to be added bar 8
N:Quaver apparently missed out bar 9.  Also bar line
I:abc2nwc
M:6/8
L:1/8
K:C
Acf ecA|c2c c2B|Acf ecA|BcB B2c|Acf ecA|c2e g2b|c'ba gfe|c2c c2"_*"
|:a2a ab"_*""_*"e2e e2c|a2a abc'|f2f f2g|
agf abc'|e2c a2b|c'ba gfe|c2c c2|]

